X: 2418
M: C
L: 1/8
K: D
uA |\
vd2(Ad) BdAd | d2AA Be ze |\
d2(Ad) BdAd | gefd Bdz H:|\
fa za a2 zf |
gefd ed z \
[1 A | fa za d'2 za | gefd ed zA :|\
[2 d | gg zg gdgb | gfeg f"_D.C."dz |]


